!!!OTL: Des F&auml;hnrichs Tod (132), S. 301
!!!id: T0302
**kern
*clefG2
*k[]
*G:
{8g
8a
=1
4b
4b
4b
8b
8cc
=2
2dd
4cc}
=3
{8cc
8b
=4
4a
4a
4a
4dd
=5
4b
4b
4b}
=6
{8g
8a
=7
4b
4b
4b
8b
8cc
=8
2dd
4cc}
=9
{4b
=10
4a
8b
8cc
4dd
4dd
=11
4b}
2r
=12
{4dd
=13
4cc
4cc
4cc
4dd
=14
4b}
2r
==
*-
!!!minrhy: 8
!!!meters: 4/4 ]  ZZ[5
!!!cut: Des F&auml;hnrichs Tod (132), S. 301
!!!reg: Luxemburg
!!!trd: Singendes Volk, Esch-Alzette 1937, posth.
!!!rhy1: XX  X_X_X_XX  X__X_
!!!rhy2: XX  X_X_X_X_  X_X_X_
!!!key: T0302  08  G 4/4 ]  ZZ[5
!!!mod: PENTATONIK DUR ?]  AMBITUS[5
!!!kad: 43433
!!!akz: 3354_2233_3354_253_443_
!!!fot: 'a__as"a__b__c__
!!!for: 'a__b__a__c__bw_
!!!fok: '/__\__/__^__\__
!! PHRAS[AUFTAKTIG]
!!!fkt: historische, Kriegs- und Soldatenlieder
!!!bem1: Rammeldingen, hhh J.P. Gloden, 26.12.1932;
!!!bem2: StraPen, fff Witry, 13.12.1932, ohne Melodie
!! THILL, Mathias:
!! PR[33] 2K[5] 2G[11] 3K[5] 3G[2] 4A[4] 4Ü[0] 5A[0] 6K[0] 6G[4]
!! 7K[0] 7G[0] 8A[0] MEHR[0] SI[30] ABS[57] SR[16] SP[14]
!! ST[12] 2k[9] 2g[18] 3k[4] 3g[2] 4d[4] 4ü[0] 5d[2] 6k[0] 6g[0]
!! 7k[0] 7g[0] 8d[0] mehr[0] si[37] dm[-7] sr[26] sp[11]
!! 1F[59] 2F[36] 3F[5] 4F[0] LF[0] 2P[0] 3P[0] 4P[0] TRI[0] DF[3] AB[64]
!! TF[0] U3K[0] U3[0] U4[0] U4Ü[0] U5[0] U6K[0] U6[0] U7K[0] U7[0]
!! N1[5] N2K[0] N2[7] N3K[0] N3[16] N4[14] N4Ü[0] N5[28] N6K[0] N6[17]
!!!n7k: 0] N7[7] O1[7] O2K[0] O2[0] O3K[0] O3[0] HÖ[0
!!!RNB: symbol: &auml;      = a umlaut  (UTF-8: Å„)
